!!!OTL: NUN ADJES JETZT MUSS ICH FORT
!!!ARE: Europa, Mitteleuropa, Deutschland, Hessen, Taunus; Lahntal; Odenwald
!!!SCT: E1397
!!!YEM: Copyright 1995, estate of Helmut Schaffrath.
**kern
*ICvox
*Ivox
*M4/4
*k[f#]
*G:
{8d
8g
=1
4g
4b
4b
8cc
8a
=2
4a
4g
8r}
{8g
8f#
8g
=3
4a
4dd
4dd
8cc
8b
=4
4b
4a
4r}
{8dd
8cc
=5
8b
8b
8b
8b
4b
8a
8b
=6
2cc
4r}
{8cc
8b
=7
8a
8a
8a
8a
8a
8ee
8dd
8cc
=8
4b}
{8dd
8ee
4dd
8a
8cc
=9
2b
4r}
{8dd
8cc
=10
8b
8b
8b
8b
4b
8a
8b
=11
2cc
4r}
{8cc
8b
=12
8a
8a
8a
8a
8a
8ee
8dd
8cc
=13
4b}
{8dd
8ee
4dd
8a
8cc
=14
2b
4r}
==
!!!AGN: Staende -, Soldaten - Lied, Deserteur
!!!ONB: ESAC (Essen Associative Code) Database: ERK3
!!!AMT: simple quadruple
!!!AIN: vox
!!!EED: Helmut Schaffrath
!!!EEV: 1.0
*-
